src/img/sun.svg

<?xml version="1.0" encoding="UTF-8"?>
<svg width="29px" height="29px" viewBox="0 0 29 29" version="1.1" xmlns="http://www.w3.org/2000/svg" xmlns:xlink="http://www.w3.org/1999/xlink">
    <!-- Generator: Sketch 63.1 (92452) - https://sketch.com -->
    <title>Sun</title>
    <desc>Created with Sketch.</desc>
    <g id="Canoe-" stroke="none" stroke-width="1" fill="none" fill-rule="evenodd">
        <g id="Review-Card" transform="translate(-146.000000, -73.000000)" fill="#FFC100">
            <g id="Sun" transform="translate(146.000000, 73.000000)">
                <path d="M14.1490081,5.82606218 C18.7456523,5.82606218 22.4719541,9.55236399 22.4719541,14.1490081 C22.4719541,18.7450578 18.7456523,22.4719541 14.1490081,22.4719541 C9.55236399,22.4719541 5.82606218,18.7450578 5.82606218,14.1490081 C5.82606218,9.55236399 9.55236399,5.82606218 14.1490081,5.82606218" id="Fill-1"></path>
                <path d="M14.1490081,4.57762028 C14.8356512,4.57762028 15.39745,1.77382786 15.39745,1.14440507 C15.39745,0.512693472 14.8381481,0 14.1490081,0 C13.4598682,0 12.9005663,0.512693472 12.9005663,1.14440507 C12.9005663,1.77382786 13.4623651,4.57762028 14.1490081,4.57762028" id="Fill-3"></path>
                <path d="M9.40179543,5.79355927 C9.95510429,5.47447761 9.00341305,2.75358129 8.69909318,2.20244024 C8.37098103,1.66174187 7.68709129,1.50220104 7.17140743,1.84564893 C6.68615557,2.16937178 6.51794968,2.82842044 6.78464454,3.36273718 C7.08896441,3.91387822 8.84848658,6.11844241 9.40179543,5.79355927" id="Fill-5"></path>
                <path d="M2.27513719,8.59720741 C2.84386393,8.94054389 5.48275598,9.98928078 5.79555569,9.39000256 C6.10835539,8.79072433 3.92444473,6.78064529 3.41259067,6.43730881 C2.88253735,6.06712966 2.1795911,6.23942215 1.84233615,6.82122142 C1.50508119,7.4030207 1.66204977,8.17459141 2.19210309,8.54477056 C2.21883325,8.56349801 2.24670086,8.58097696 2.27513719,8.59720741" id="Fill-7"></path>
                <path d="M4.57762028,14.1490081 C4.57762028,13.4623651 1.77382786,12.9005663 1.14440507,12.9005663 C0.512693472,12.9005663 -9.08162434e-13,13.4598682 -9.08162434e-13,14.1490081 C-9.08162434e-13,14.8381481 0.512693472,15.39745 1.14440507,15.39745 C1.77382786,15.39745 4.57762028,14.8356512 4.57762028,14.1490081" id="Fill-9"></path>
                <path d="M2.27477844,19.7004955 C1.71820969,20.0207133 1.50331389,20.7747544 1.79438968,21.3852281 C2.08546547,21.9969502 2.77222242,22.2329001 3.32879117,21.9133066 C3.35721654,21.8970772 3.3850734,21.8789752 3.41179325,21.860249 C3.98030066,21.5169356 6.11220343,19.5069916 5.79383929,18.9077536 C5.47547514,18.3091398 2.7864351,19.3571821 2.27477844,19.7004955" id="Fill-11"></path>
                <path d="M6.78506894,24.9346183 C6.50091865,25.5027758 6.71070149,26.2044125 7.25402792,26.5009686 C7.76516545,26.7806948 8.3956239,26.60427 8.70530332,26.0953077 C9.01054288,25.5439803 9.94291102,22.8221637 9.41012923,22.5035545 C8.87734744,22.1837845 7.09030851,24.3832909 6.78506894,24.9346183" id="Fill-13"></path>
                <path d="M14.1490081,23.7204532 C13.4623651,23.7204532 12.9005662,26.5236734 12.9005662,27.1536684 C12.9005662,27.78538 13.4598682,28.2980735 14.1490081,28.2980735 C14.8381481,28.2980735 15.39745,27.78538 15.39745,27.1536684 C15.39745,26.5236734 14.8356512,23.7204532 14.1490081,23.7204532" id="Fill-15"></path>
                <path d="M18.8962209,22.504569 C18.342912,22.8236639 19.2946032,25.5440929 19.5989231,26.0952568 C19.9264819,26.6365578 20.610925,26.7955251 21.1266089,26.4526431 C21.6118607,26.1289068 21.7800666,25.4692507 21.5133717,24.9349118 C21.2090519,24.3837479 19.4495297,22.1790922 18.8962209,22.504569" id="Fill-18"></path>
                <path d="M26.0953077,19.5988372 C25.5439803,19.2945473 22.8221637,18.3429498 22.5035545,18.8962042 C22.1837845,19.4494585 24.3832909,21.2088074 24.9346183,21.5130973 C25.5027758,21.7969168 26.2038322,21.5872334 26.5009686,21.0455974 C26.7806948,20.5360501 26.60427,19.9075531 26.0953077,19.5988372" id="Fill-20"></path>
                <path d="M27.1536112,12.9005663 C26.5241884,12.9005663 23.720396,13.4623651 23.720396,14.1490081 C23.720396,14.8356512 26.5241884,15.39745 27.1536112,15.39745 C27.7853228,15.39745 28.2980163,14.8381481 28.2980163,14.1490081 C28.2980163,13.4598682 27.7853228,12.9005663 27.1536112,12.9005663" id="Fill-22"></path>
                <path d="M26.0951675,8.69909318 C26.6364551,8.37098103 26.7959987,7.68709129 26.4519648,7.17140743 C26.1288167,6.68615557 25.4691768,6.51794968 24.934851,6.78464454 C24.3837007,7.08896441 22.1790994,8.84848658 22.5045682,9.40179543 C22.8288767,9.95510429 25.5440172,9.00341305 26.0951675,8.69909318" id="Fill-24"></path>
                <path d="M21.8616968,3.42446288 C22.2301894,2.8908095 22.0583922,2.18308893 21.4788876,1.84354338 C20.8981381,1.50399784 20.1294076,1.66203253 19.7602925,2.1956859 C19.7416188,2.2225976 19.7235677,2.25065449 19.7073839,2.27928396 C19.3650343,2.79461447 18.295036,5.48005903 18.9174899,5.79498323 C19.5399438,6.10990743 21.5187247,3.93979339 21.8616968,3.42446288" id="Fill-26"></path>
            </g>
        </g>
    </g>
</svg>

<svg xmlns="http://www.w3.org/2000/svg" width="29" height="29" fill="#ffc100" fill-rule="evenodd"><path d="M14.15 5.826c4.597 0 8.323 3.726 8.323 8.323s-3.726 8.323-8.323 8.323-8.323-3.727-8.323-8.323 3.726-8.323 8.323-8.323m0-1.248c.687 0 1.248-2.804 1.248-3.433S14.838 0 14.15 0 12.9.513 12.9 1.144s.562 3.433 1.248 3.433M9.402 5.794c.553-.32-.398-3.04-.703-3.6-.328-.54-1.012-.7-1.528-.357-.485.324-.653.983-.387 1.517.304.55 2.064 2.756 2.617 2.43M2.275 8.597c.57.343 3.208 1.392 3.52.793s-1.87-2.6-2.383-2.953c-.53-.37-1.233-.198-1.57.384s-.18 1.353.35 1.724l.083.052m2.303 5.553c0-.687-2.804-1.248-3.433-1.248S0 13.46 0 14.15s.513 1.248 1.144 1.248 3.433-.562 3.433-1.248M2.275 19.7c-.557.32-.77 1.074-.48 1.685s.978.848 1.534.528l.083-.053c.57-.343 2.7-2.353 2.382-2.952s-3.007.45-3.52.793m4.51 5.234c-.284.568-.074 1.27.47 1.566a1.08 1.08 0 0 0 1.45-.406c.305-.55 1.238-3.273.705-3.592s-2.32 1.88-2.625 2.43m7.365-1.213c-.687 0-1.248 2.803-1.248 3.433s.56 1.144 1.248 1.144 1.248-.513 1.248-1.144-.562-3.433-1.248-3.433m4.746-1.215c-.553.32.398 3.04.703 3.6.328.54 1.012.7 1.528.357.485-.324.653-.983.387-1.518-.304-.55-2.064-2.756-2.617-2.43m7.198-2.904c-.55-.304-3.273-1.256-3.592-.703s1.88 2.313 2.43 2.617c.568.284 1.27.074 1.566-.467.28-.5.103-1.138-.406-1.447m1.06-6.7c-.63 0-3.433.562-3.433 1.248s2.804 1.248 3.433 1.248 1.144-.56 1.144-1.248-.513-1.248-1.144-1.248m-1.06-4.2c.54-.328.7-1.012.357-1.528-.323-.485-.983-.653-1.517-.387-.55.304-2.756 2.064-2.43 2.617s3.04-.398 3.6-.703m-4.233-5.275c.368-.534.197-1.24-.383-1.58s-1.35-.182-1.72.352l-.053.084c-.342.515-1.412 3.2-.8 3.516s2.6-1.855 2.944-2.37"/></svg>
